X:647
T: DER KUCKUK AUF DEM BIRNBAUM SASS
N: E0596
O: Europa, Mitteleuropa, Deutschland, Hessen, Darmstadt, Offenthal
R: Liebes - Lied
M: 3/8
L: 1/16
K: G
D2 | G4B2 | G4B2 | d3ed2 | B4d2 | B4
GB | d2d2ed | dcc2
c2 | B3cdB | A4
A2 | B2B2c2 | d2d2
dc | B2B2A2 | G4

